X: 53
T: No_58_Song_Addressed_to_Eagle_Nest.krn
N: Derived from No_58_Song_Addressed_to_Eagle_Nest.krn
%%abc-version 2.0
%%abcx-abcm2ps-target-version 5.9.1 (29 Sep 2008)
%%abc-creator hum2abc beta
%%abcx-conversion-date 2019/03/15 08:27:55
%%humdrum-veritas 1597034842
%%humdrum-veritas-data 3570281054
%%linebreak <none>
%%barnumbers 0
L: 1/16
M: 2/4
K: Bb clef=treble
[K:clef=treble][M:2/4]z6BB | 
B3B (B2 G/) z/ F | 
[M:3/4]B3B c2BB (B2 F/) z/ F | 
F3F G2FF F2 z E [I:setbarnb 5]| 
F3F G2FF F3E | 
E3E F2EE _D2 z B, | 
[M:2/4]E3E F2EE | 
_D3B, B,2 z2 | 
CB,B, z B,B,B, z | 
CB,B, z B,B,B, z | 
B,4z3 E :|]  
B,2z6 |]  



